app/assets/icons/brand.svg

<?xml version="1.0" encoding="UTF-8"?>
<svg id="Layer_1" data-name="Layer 1" xmlns="http://www.w3.org/2000/svg" viewBox="0 0 250 250">
  <defs>
    <style>
      .cls-1 {
        fill: #fff;
      }
    </style>
  </defs>
  <path class="cls-1" d="M49.7,226.86h-23.87V19.33h207.53v86.98c-.8-1.5-2.42-3.24-4.25-3.24h-32.97v-9.1c0-1.86-3.3-3.64-5.04-3.46l-85.78.02c-3.39.22-5.96,3.2-3.93,6.36.25.39,1.75,1.73,1.91,1.73h84.75c-.61,15.78,1.54,32.25-1.82,47.74-4.44,20.54-17.86,38.83-35.82,49.54l-77.84.2c-19.02-10.68-32.97-30.59-36.91-52.09-2.7-14.73-.74-30.43-1.34-45.38h28.52c.17,0,1.66-1.34,1.91-1.73,1.93-3.02-.32-5.93-3.57-6.33-9.54.84-21.42-1.26-30.67,0-2.38.32-4.19,1.72-4.28,4.21.26,25.76-2.86,50,9.23,73.7,5.47,10.72,13.5,19.61,22.32,27.64h-28.52c-.49,0-2.49,1.93-2.73,2.53-1.04,2.58.43,8.29,1.41,10.92,3.57,9.59,11.86,15.48,21.75,17.29ZM109.08,19.82c-4.88.7-6.73,11.14-6.39,15.11.89,10.53,12.63,13.99,8.01,26.19-1.05,2.79-4.5,5.42-4.77,7.77-.56,4.86,4.15,6.13,7.5,2.64,6.2-6.46,8.12-16.14,4.59-24.42-2.66-6.24-8.47-8.7-7.13-16.55.54-3.15,3.69-4.82,2.55-8.41-.51-1.62-2.82-2.55-4.36-2.33ZM85.99,29.13c-3.49.8-6.02,9.91-5.98,13.06.15,12.42,14.96,16.66,7.08,30.11-1.67,2.86-5.61,5.42-2.82,8.95,3.76,4.75,8.72-2.69,10.4-5.82,3.49-6.52,3.6-13.72.41-20.37-2.91-6.07-9.15-8.83-6.16-16.94.94-2.54,3.13-3.57,2.18-6.59-.7-2.23-2.92-2.9-5.11-2.4ZM130.9,29.13c-3.89.89-6.15,10.44-5.96,13.89.64,11.72,14.96,16.51,6.9,29.53-1.65,2.66-5.27,5.08-2.84,8.48,3.7,5.18,8.86-2.33,10.59-5.59,3.57-6.73,3.55-14.44-.06-21.12-2.8-5.19-7.51-7.47-6.3-14.37.59-3.42,4.87-6.41,2.07-9.71-1.06-1.25-2.85-1.45-4.39-1.1ZM81.4,97.67c3.99,3.96,9.98-3.18,4.93-6.34-4.09-2.56-8.32,2.98-4.93,6.34ZM171.76,125.81c-3.64.81-2.84,4.53-3.13,7-1.34,11.56-4.02,20.89-10.83,30.43-1.39,1.95-6.36,7.05-6.77,8.59-.81,3.04,1.36,5.65,4.42,5.27,1.89-.24,5.98-5.25,7.28-6.91,5.97-7.63,10.81-17.85,12.67-27.38.58-3.01,2.08-12.43.88-14.8-.81-1.58-2.75-2.59-4.51-2.2ZM144.24,180.06c-3.66-3.23-9.36,2.44-5.56,6.17s9.66-2.55,5.56-6.17Z"/>
  <path d="M49.7,226.86c-9.89-1.81-18.18-7.7-21.75-17.29-.98-2.63-2.45-8.34-1.41-10.92.24-.6,2.24-2.53,2.73-2.53h28.52c-8.83-8.02-16.85-16.92-22.32-27.64-12.1-23.69-8.97-47.93-9.23-73.7.1-2.49,1.91-3.89,4.28-4.21,9.26-1.26,21.14.84,30.67,0,3.25.4,5.5,3.31,3.57,6.33-.25.39-1.75,1.73-1.91,1.73h-28.52c.61,14.96-1.36,30.65,1.34,45.38,3.94,21.5,17.89,41.41,36.91,52.09l77.84-.2c17.97-10.7,31.38-28.99,35.82-49.54,3.35-15.49,1.2-31.96,1.82-47.74h-84.75c-.17,0-1.66-1.34-1.91-1.73-2.03-3.17.54-6.15,3.93-6.36l85.78-.02c1.75-.18,5.04,1.59,5.04,3.46v9.1h32.97c1.83,0,3.45,1.74,4.25,3.24v33.98c-.82,2.61-1.08,5.37-1.92,7.99-4.19,13.16-15.99,23.73-29.62,26.2-6.25,1.13-12.62.31-18.95.68-4.72,8.13-11.55,14.54-18.29,20.95h38.23c.49,0,2.49,1.93,2.73,2.53,1.04,2.58-.43,8.29-1.41,10.92-3.57,9.59-11.86,15.48-21.75,17.29H49.7ZM225.27,111.57h-29.13v7.69h16.79c2.19,0,4,2.1,4.26,4.24.53,4.38.28,15.15-.93,19.31-3.22,11.03-14.1,17.3-25.31,16.15l-3.29,8.04h10.72c12.15,0,26.9-15.68,26.9-27.71v-27.71ZM209.09,127.75h-12.95c.35,7.8-1.08,15.45-2.43,23.06,6.21.54,12.46-3.76,14.48-9.59.18-.53.9-2.84.9-3.15v-10.32ZM197.36,204.21H34.74c2,7.91,8.63,13.72,16.79,14.56l128.25.02c8.66-.6,15.39-6.25,17.58-14.58Z"/>
  <path class="cls-1" d="M233.36,140.29v86.57h-50.97c9.89-1.81,18.18-7.7,21.75-17.29.98-2.64,2.45-8.34,1.41-10.92-.24-.6-2.24-2.53-2.73-2.53h-38.23c6.74-6.41,13.57-12.82,18.29-20.95,6.33-.37,12.69.46,18.95-.68,13.64-2.48,25.44-13.05,29.62-26.2.83-2.62,1.1-5.38,1.92-7.99Z"/>
  <path d="M130.9,29.13c1.54-.35,3.33-.15,4.39,1.1,2.8,3.3-1.47,6.3-2.07,9.71-1.2,6.91,3.5,9.19,6.3,14.37,3.61,6.68,3.64,14.39.06,21.12-1.73,3.26-6.9,10.77-10.59,5.59-2.43-3.41,1.19-5.82,2.84-8.48,8.06-13.02-6.26-17.8-6.9-29.53-.19-3.45,2.07-13,5.96-13.89Z"/>
  <path d="M109.08,19.82c1.55-.22,3.85.71,4.36,2.33,1.14,3.59-2.02,5.26-2.55,8.41-1.34,7.85,4.46,10.31,7.13,16.55,3.53,8.28,1.61,17.96-4.59,24.42-3.35,3.49-8.06,2.22-7.5-2.64.27-2.35,3.72-4.98,4.77-7.77,4.61-12.2-7.12-15.66-8.01-26.19-.34-3.97,1.51-14.41,6.39-15.11Z"/>
  <path d="M85.99,29.13c2.18-.5,4.4.18,5.11,2.4.96,3.02-1.24,4.05-2.18,6.59-2.99,8.1,3.25,10.86,6.16,16.94,3.19,6.65,3.08,13.85-.41,20.37-1.68,3.13-6.64,10.57-10.4,5.82-2.79-3.53,1.14-6.09,2.82-8.95,7.88-13.44-6.93-17.68-7.08-30.11-.04-3.15,2.5-12.26,5.98-13.06Z"/>
  <path d="M171.76,125.81c1.76-.39,3.7.62,4.51,2.2,1.21,2.36-.29,11.79-.88,14.8-1.85,9.54-6.7,19.75-12.67,27.38-1.3,1.66-5.39,6.67-7.28,6.91-3.06.39-5.23-2.23-4.42-5.27.41-1.54,5.38-6.64,6.77-8.59,6.81-9.54,9.49-18.87,10.83-30.43.29-2.47-.51-6.19,3.13-7Z"/>
  <path d="M144.24,180.06c4.09,3.62-1.69,9.96-5.56,6.17s1.9-9.4,5.56-6.17Z"/>
  <path d="M81.4,97.67c-3.39-3.37.84-8.9,4.93-6.34,5.05,3.16-.94,10.3-4.93,6.34Z"/>
  <path class="cls-1" d="M197.36,204.21c-2.19,8.33-8.92,13.98-17.58,14.58l-128.25-.02c-8.17-.83-14.8-6.65-16.79-14.56h162.63Z"/>
  <path class="cls-1" d="M225.27,111.57v27.71c0,12.03-14.75,27.71-26.9,27.71h-10.72l3.29-8.04c11.22,1.15,22.09-5.12,25.31-16.15,1.21-4.16,1.46-14.93.93-19.31-.26-2.14-2.07-4.24-4.26-4.24h-16.79v-7.69h29.13Z"/>
  <path class="cls-1" d="M209.09,127.75v10.32c0,.31-.71,2.61-.9,3.15-2.01,5.83-8.27,10.14-14.48,9.59,1.35-7.61,2.78-15.26,2.43-23.06h12.95Z"/>
</svg>

<svg width="250" height="250" viewBox="0 0 250 250" fill="none" xmlns="http://www.w3.org/2000/svg">
<path d="M49.7 226.86C39.81 225.05 31.52 219.16 27.95 209.57C26.97 206.94 25.5 201.23 26.54 198.65C26.78 198.05 28.78 196.12 29.27 196.12H57.79C48.96 188.1 40.94 179.2 35.47 168.48C23.37 144.79 26.5 120.55 26.24 94.78C26.34 92.29 28.15 90.89 30.52 90.57C39.78 89.31 51.66 91.41 61.19 90.57C64.44 90.97 66.69 93.88 64.76 96.9C64.51 97.29 63.01 98.63 62.85 98.63H34.33C34.94 113.59 32.97 129.28 35.67 144.01C39.61 165.51 53.56 185.42 72.58 196.1L150.42 195.9C168.39 185.2 181.8 166.91 186.24 146.36C189.59 130.87 187.44 114.4 188.06 98.62H103.31C103.14 98.62 101.65 97.28 101.4 96.89C99.37 93.72 101.94 90.74 105.33 90.53L191.11 90.51C192.86 90.33 196.15 92.1 196.15 93.97V103.07H229.12C230.95 103.07 232.57 104.81 233.37 106.31V140.29C232.55 142.9 232.29 145.66 231.45 148.28C227.26 161.44 215.46 172.01 201.83 174.48C195.58 175.61 189.21 174.79 182.88 175.16C178.16 183.29 171.33 189.7 164.59 196.11H202.82C203.31 196.11 205.31 198.04 205.55 198.64C206.59 201.22 205.12 206.93 204.14 209.56C200.57 219.15 192.28 225.04 182.39 226.85H49.7V226.86ZM225.27 111.57H196.14V119.26H212.93C215.12 119.26 216.93 121.36 217.19 123.5C217.72 127.88 217.47 138.65 216.26 142.81C213.04 153.84 202.16 160.11 190.95 158.96L187.66 167H198.38C210.53 167 225.28 151.32 225.28 139.29V111.58L225.27 111.57ZM209.09 127.75H196.14C196.49 135.55 195.06 143.2 193.71 150.81C199.92 151.35 206.17 147.05 208.19 141.22C208.37 140.69 209.09 138.38 209.09 138.07V127.75ZM197.36 204.21H34.74C36.74 212.12 43.37 217.93 51.53 218.77L179.78 218.79C188.44 218.19 195.17 212.54 197.36 204.21Z" fill="black"/>
<path d="M130.9 29.13C132.44 28.78 134.23 28.98 135.29 30.23C138.09 33.53 133.82 36.53 133.22 39.94C132.02 46.85 136.72 49.13 139.52 54.31C143.13 60.99 143.16 68.7 139.58 75.43C137.85 78.69 132.68 86.2 128.99 81.02C126.56 77.61 130.18 75.2 131.83 72.54C139.89 59.52 125.57 54.74 124.93 43.01C124.74 39.56 127 30.01 130.89 29.12L130.9 29.13Z" fill="black"/>
<path d="M109.08 19.8201C110.63 19.6001 112.93 20.5301 113.44 22.1501C114.58 25.7401 111.42 27.4101 110.89 30.5601C109.55 38.4101 115.35 40.8701 118.02 47.1101C121.55 55.3901 119.63 65.0701 113.43 71.5301C110.08 75.0201 105.37 73.7501 105.93 68.8901C106.2 66.5401 109.65 63.9101 110.7 61.1201C115.31 48.9201 103.58 45.4601 102.69 34.9301C102.35 30.9601 104.2 20.5201 109.08 19.8201Z" fill="black"/>
<path d="M85.99 29.13C88.17 28.63 90.39 29.31 91.1 31.53C92.06 34.55 89.86 35.58 88.92 38.12C85.93 46.22 92.17 48.98 95.08 55.06C98.27 61.71 98.16 68.91 94.67 75.43C92.99 78.56 88.03 86 84.27 81.25C81.48 77.72 85.41 75.16 87.09 72.3C94.97 58.86 80.16 54.62 80.01 42.19C79.97 39.04 82.51 29.93 85.99 29.13Z" fill="black"/>
<path d="M171.76 125.81C173.52 125.42 175.46 126.43 176.27 128.01C177.48 130.37 175.98 139.8 175.39 142.81C173.54 152.35 168.69 162.56 162.72 170.19C161.42 171.85 157.33 176.86 155.44 177.1C152.38 177.49 150.21 174.87 151.02 171.83C151.43 170.29 156.4 165.19 157.79 163.24C164.6 153.7 167.28 144.37 168.62 132.81C168.91 130.34 168.11 126.62 171.75 125.81H171.76Z" fill="black"/>
<path d="M144.24 180.06C148.33 183.68 142.55 190.02 138.68 186.23C134.81 182.44 140.58 176.83 144.24 180.06Z" fill="black"/>
<path d="M81.4001 97.6699C78.0101 94.2999 82.2401 88.7699 86.3301 91.3299C91.3801 94.4899 85.3901 101.63 81.4001 97.6699Z" fill="black"/>
</svg>
